build/Karasa-Jaga/scalable/apps/totem-symbolic.svg

<svg height="16" width="16" xmlns="http://www.w3.org/2000/svg"><g fill="#bebebe"><path d="m0 3.3893434v11.6106566l16 .0063v-11.612757zm1 1.6106566h14v9h-14z" stroke-width=".864488"/><path d="m16 1h-16v2.3893434l16 .0021zm-13.6185273.1397788h2.0765035l.8944293 1.1253852-.8944293 1.1232856h-2.0765035l.8923296-1.1232856zm4.299979 0h2.0765036l.8944293 1.1253852-.8944293 1.1232856h-2.0765036l.8923297-1.1232856zm4.2999793 0h2.076503l.894429 1.1253852-.894429 1.1232856h-2.076503l.89233-1.1232856z" stroke-width=".399196"/><path d="m12.162519 10.401537-8.0737997 2.971125 1.1490251-8.0761549z" fill-opacity=".943137" transform="matrix(.84955257 -.12086905 .12086905 .84955257 -.089923 2.13342)"/></g></svg>

<?xml version="1.0" encoding="UTF-8" standalone="no"?>
<!-- Created with Inkscape (http://www.inkscape.org/) -->

<svg
   xmlns:dc="http://purl.org/dc/elements/1.1/"
   xmlns:cc="http://creativecommons.org/ns#"
   xmlns:rdf="http://www.w3.org/1999/02/22-rdf-syntax-ns#"
   xmlns:svg="http://www.w3.org/2000/svg"
   xmlns="http://www.w3.org/2000/svg"
   xmlns:sodipodi="http://sodipodi.sourceforge.net/DTD/sodipodi-0.dtd"
   xmlns:inkscape="http://www.inkscape.org/namespaces/inkscape"
   id="svg3085"
   version="1.1"
   inkscape:version="0.92.2 (unknown)"
   width="16"
   height="16"
   sodipodi:docname="totem-symbolic.svg">
  <metadata
     id="metadata3091">
    <rdf:RDF>
      <cc:Work
         rdf:about="">
        <dc:format>image/svg+xml</dc:format>
        <dc:type
           rdf:resource="http://purl.org/dc/dcmitype/StillImage" />
        <dc:title></dc:title>
      </cc:Work>
    </rdf:RDF>
  </metadata>
  <defs
     id="defs3089">
    <filter
       color-interpolation-filters="sRGB"
       id="filter7554">
      <feBlend
         mode="darken"
         in2="BackgroundImage"
         id="feBlend7556" />
    </filter>
  </defs>
  <sodipodi:namedview
     pagecolor="#ffffff"
     bordercolor="#666666"
     borderopacity="1"
     objecttolerance="10"
     gridtolerance="10"
     guidetolerance="10"
     inkscape:pageopacity="0"
     inkscape:pageshadow="2"
     inkscape:window-width="1366"
     inkscape:window-height="716"
     id="namedview3087"
     showgrid="false"
     inkscape:zoom="14.75"
     inkscape:cx="12.435952"
     inkscape:cy="1.4219497"
     inkscape:window-x="0"
     inkscape:window-y="27"
     inkscape:window-maximized="1"
     inkscape:current-layer="svg3085" />
  <g
     id="g1095">
    <path
       inkscape:connector-curvature="0"
       id="rect5700"
       d="M 0.53382542,3.4598359 V 14.669595 l 14.93234858,0.0042 V 3.4619355 Z m 1.04350078,0.9469192 12.8453468,0.0021 v 9.3159209 l -12.8453468,-0.0021 z"
       style="fill:#bebebe;fill-opacity:1;stroke-width:0.86448789" />
    <path
       inkscape:connector-curvature="0"
       id="path1067"
       d="m 15.466174,1.0683925 -14.93234858,0.0021 V 3.4598359 H 15.466174 Z M 2.3814727,1.1397788 H 4.4579762 L 5.3524055,2.265164 4.4579762,3.3884496 H 2.3814727 L 3.2738023,2.265164 Z m 4.299979,0 H 8.7579553 L 9.6523846,2.265164 8.7579553,3.3884496 H 6.6814517 L 7.5737814,2.265164 Z m 4.2999793,0 h 2.076503 l 0.894429,1.1253852 -0.894429,1.1232856 h -2.076503 l 0.89233,-1.1232856 z"
       style="fill:#bebebe;fill-opacity:1;stroke-width:0.39919612" />
    <path
       transform="matrix(0.84955257,-0.12086905,0.12086905,0.84955257,-0.08992281,2.1334202)"
       inkscape:transform-center-y="-0.0070418002"
       inkscape:transform-center-x="-1.064353"
       d="M 12.128679,9.911691 4.0992835,13.109281 5.3447868,4.5568255 Z"
       inkscape:randomized="0"
       inkscape:rounded="0"
       inkscape:flatsided="true"
       sodipodi:arg2="1.191812"
       sodipodi:arg1="0.14461444"
       sodipodi:r2="2.4949245"
       sodipodi:r1="4.9898491"
       sodipodi:cy="9.1925993"
       sodipodi:cx="7.1909165"
       sodipodi:sides="3"
       id="path1090"
       style="opacity:1;fill:#bebebe;fill-opacity:0.94313725;stroke:none"
       sodipodi:type="star" />
  </g>
</svg>
